!!!!SEGMENT: pl-sa--497-a-viii-137--001-003_anonim--nihil-est-in-mundo-aria.krn
!!!cenid: 17xx:1294
!!!COM: Anonim
!!!COM-rismID: pe30004985
!!!CDT:
!!!CNT:
!!!OPR: Nihil est in mundo
!!!OTL: Aria
!!!OMV: 003
!!!PDT:
!!!AGN:
!!!YEC: Copyright 2022 Narodowy Instytut Fryderyka Chopina (https://polishscores.org)
!!!YEM: License CC-BY-4.0 (https://creativecommons.org/licenses/by/4.0)
!!!SMS-siglum: PL-SA
!!!SMS-shelfmark: 497/A VIII 137
!!!SMS-shelfwork: 001-003 M
!!!SMS-variant:
!!!SMS-altvar:
!!!NIFC-rismSourceID: 1001069546
!!!NIFC-rismChildID: 1001069546
!!!NIFC-islandoraID: none
!!!URL-pdf-islandora:
!!!URL-scan: https://bc.bdsandomierz.pl/dlibra/publication/1183/edition/1142/content @EN{Scan in the Sandomierz Diocese Digital Library} @PL{Skany w portalu Cyfrowa Biblioteka Diecezjalna w Sandomierzu}
!!!IIIF:
!!!ONB-nifc: UWAGA: części Nihil est in mundo: 1. Sonata, 2. Recitativo, 3. Aria
!!!AIN: 1 organ 1 soprn 1 viola 2 violn
!!!key: A
**kern	**fba	**dynam	**kern	**dynam	**kern	**dynam	**kern	**dynam	**kern	**text	**dynam
*part5	*	*	*part4	*	*part3	*	*part2	*	*part1	*	*
*staff5	*	*	*staff4	*	*staff3	*	*staff2	*	*staff1	*	*
*I"Organo	*	*	*I"alto viola	*	*I"Violino 2do	*	*I"Violino 1mo	*	*I"Canto Solo	*	*
*I'org	*	*	*I'a-vla	*	*I'vl 2	*	*I'vl 1	*	*I'S solo	*	*
*Iorgan	*	*	*Iviola	*	*Ivioln	*	*Ivioln	*	*Isoprn	*	*
*ICklav	*	*	*ICstr	*	*ICstr	*	*ICstr	*	*ICvox	*	*
*IGcont	*	*	*	*	*	*	*	*	*IGsolo	*	*
*>[A,B,A]	*>[A,B,A]	*>[A,B,A]	*>[A,B,A]	*>[A,B,A]	*>[A,B,A]	*>[A,B,A]	*>[A,B,A]	*>[A,B,A]	*>[A,B,A]	*>[A,B,A]	*>[A,B,A]
*>A	*>A	*>A	*>A	*>A	*>A	*>A	*>A	*>A	*>A	*>A	*>A
*clefF4	*	*	*clefC3	*	*clefG2	*	*clefG2	*	*clefC1	*	*
*k[f#c#g#]	*	*	*k[f#c#g#]	*	*k[f#c#g#]	*	*k[f#c#g#]	*	*k[f#c#g#]	*	*
*A:	*	*	*A:	*	*A:	*	*A:	*	*A:	*	*
*M2/2	*	*	*M2/2	*	*M2/2	*	*M2/2	*	*M2/2	*	*
*met(c|)	*	*	*met(c|)	*	*met(c|)	*	*met(c|)	*	*met(c|)	*	*
=	=	=	=	=	=	=	=	=	=	=	=
!LO:TX:t=P:problem=metrum odwrócone C|	!	!	!LO:TX:t=P:problem=metrum odwrócone C|	!	!LO:TX:t=P:problem=znaki f#, cc#, ff# (jeden nad drugim), g#, gg# (rownież jeden nad drugim), metrum odwrócone C|	!	!LO:TX:t=P:problem=znaki f#, cc#, ff# (jeden nad drugim), g#, gg# (rownież jeden nad drugim), metrum odwrócone C|	!	!LO:TX:t=P:problem=znaki f# cc# g#	!	!
!	!	!	!LO:TX:a:t=vivace	!	!LO:TX:a:t=allegro	!	!LO:TX:a:t=vivace	!	!	!	!
4r	.	.	4a\	.	4cc#\	.	[<4ee\	.	4r	.	.
=1	=1	=1	=1	=1	=1	=1	=1	=1	=1	=1	=1
*2\right	*	*	*2\right	*	*	*	*	*	*	*	*
!LO:TX:b:t=Amote	!	!	!	!	!	!	!	!	!	!	!
2.A\	.	.	2.a\	.	4cc#\	.	4ee\]	.	00r	.	.
.	.	.	.	.	8dd\L	.	8ff#\L	.	.	.	.
.	.	.	.	.	8cc#\J	.	8ee\J	.	.	.	.
.	.	.	.	.	(8b\L	.	8dd\L	.	.	.	.
.	.	.	.	.	8a\	.	8cc#\	.	.	.	.
4AA/	.	.	4a\	.	8dd\)	.	8b\	.	.	.	.
.	.	.	.	.	8cc#\J	.	8a\J	.	.	.	.
=2	=2	=2	=2	=2	=2	=2	=2	=2	=2	=2	=2
*	*	*	*	*	*2\right	*	*2\right	*	*	*	*
4D\	.	.	2a\	.	2dd\	.	2ff#\	.	.	.	.
4F#\	.	.	.	.	.	.	.	.	.	.	.
4A\	.	.	4a\	.	4cc#\	.	4ee\	.	.	.	.
4r	.	.	4r	.	4r	.	4aa\	.	.	.	.
=3	=3	=3	=3	=3	=3	=3	=3	=3	=3	=3	=3
4d\	.	.	4f#\	.	4dd\	.	(8ff#\L	.	.	.	.
.	.	.	.	.	.	.	8dd\	.	.	.	.
4D/	.	.	4f#\	.	4dd\	.	8cc#\)	.	.	.	.
.	.	.	.	.	.	.	8dd\J|	.	.	.	.
4F#\	.	.	4f#\	.	4dd\	.	(8ff#\L	.	.	.	.
.	.	.	.	.	.	.	8dd\	.	.	.	.
4D\	.	.	4f#\	.	4dd\	.	8cc#\)	.	.	.	.
.	.	.	.	.	.	.	8dd\J|	.	.	.	.
=4	=4	=4	=4	=4	=4	=4	=4	=4	=4	=4	=4
2A\	.	.	2a\	.	2.cc#\	.	8ee\L	.	.	.	.
.	.	.	.	.	.	.	8dd\	.	.	.	.
.	.	.	.	.	.	.	8cc#\	.	.	.	.
.	.	.	.	.	.	.	8b\J	.	.	.	.
2AA/	.	.	2a\	.	.	.	4a/	.	.	.	.
.	.	.	.	.	4cc#\	.	4aa\	.	.	.	.
!	!	!	!	!	!	!	!LO:LB:g=original	!	!	!	!
=5	=5	=5	=5	=5	=5	=5	=5	=5	=5	=5	=5
4d\	.	.	4f#\	.	4dd\	.	(8ff#\L	.	00r	.	.
!	!	!LO:DY:b:t=pi.	!	!	!	!	!	!	!	!	!
.	.	p	.	.	.	.	8dd\	.	.	.	.
4D/	.	.	4f#\	.	4dd\	.	8cc#\)	.	.	.	.
.	.	.	.	.	.	.	8dd\J|	.	.	.	.
!	!	!	!LO:LB:g=original	!	!	!	!	!	!	!	!
4F#\	.	.	4f#\	.	4dd\	.	(8ff#\L	.	.	.	.
.	.	.	.	.	.	.	8dd\	.	.	.	.
4D\	.	.	4f#\	.	4dd\	.	8cc#\)	.	.	.	.
.	.	.	.	.	.	.	8dd\J|	.	.	.	.
=6	=6	=6	=6	=6	=6	=6	=6	=6	=6	=6	=6
2A\	.	.	2e\	.	2.cc#\	.	8ee\L	.	.	.	.
.	.	.	.	.	.	.	8dd\	.	.	.	.
.	.	.	.	.	.	.	8cc#\	.	.	.	.
.	.	.	.	.	.	.	8b\J	.	.	.	.
2AA/	.	.	2a\	.	.	.	4a/	.	.	.	.
.	.	.	.	.	4cc#\	.	4ee\	.	.	.	.
=7	=7	=7	=7	=7	=7	=7	=7	=7	=7	=7	=7
4B\	.	.	4e\	.	(8b/L	.	(8dd\L	.	.	.	.
.	.	.	.	.	8a/)	.	8cc#\	.	.	.	.
4E\	.	.	4f#\	.	(8b/	.	8dd\)	.	.	.	.
.	.	.	.	.	8a/J)	.	8b\J|	.	.	.	.
4A\	.	.	4e\	.	(8a/L	.	(8cc#\L	.	.	.	.
.	.	.	.	.	8g#/)	.	8b\	.	.	.	.
4AA/	.	.	4f#\	.	(8a/	.	8cc#\)	.	.	.	.
.	.	.	.	.	8g#/J)	.	8a\J|	.	.	.	.
=8	=8	=8	=8	=8	=8	=8	=8	=8	=8	=8	=8
2E\	.	.	4.e\	.	4.g#/	.	4.b/	.	.	.	.
.	.	.	8ryy	.	8g#/	.	8e/	.	.	.	.
2r	.	.	8e\L	.	8g#/L	.	8b/L	.	.	.	.
.	.	.	8e\	.	8g#/	.	8e/	.	.	.	.
.	.	.	8e\	.	8g#/	.	8b/	.	.	.	.
.	.	.	8e\J	.	8g#/J	.	8e/J	.	.	.	.
=9	=9	=9	=9	=9	=9	=9	=9	=9	=9	=9	=9
2E\	6 4	.	4.e\	.	4.a/	.	4.cc#\	.	00r	.	.
.	.	.	8e\	.	8a/	.	8e/	.	.	.	.
!	!	!	!	!	!	!	!LO:TX:t=P:problem=mixed beam	!	!	!	!
2r	.	.	8e\L	.	8a/L	.	8cc#\L	.	.	.	.
.	.	.	8e\	.	8a/	.	8e/	.	.	.	.
.	.	.	8e\	.	8a/	.	8cc#\	.	.	.	.
.	.	.	8e\J	.	8a/J	.	8e/J	.	.	.	.
!LO:PB:g=original	!	!	!	!	!	!	!	!	!	!	!
=10	=10	=10	=10	=10	=10	=10	=10	=10	=10	=10	=10
2E\	7	.	4.g#\	.	4.b\	.	4.dd\	.	.	.	.
.	.	.	8g#\	.	8b\	.	8e/	.	.	.	.
!	!	!	!	!	!	!	!LO:TX:t=P:problem=mixed beam	!	!	!	!
2r	.	.	8g#\L	.	8b\L	.	8dd\L	.	.	.	.
.	.	.	8g#\	.	8b\	.	8e/	.	.	.	.
.	.	.	8g#\	.	8b\	.	8dd\	.	.	.	.
.	.	.	8g#\J	.	8b\J	.	8e/J	.	.	.	.
!	!	!	!	!	!LO:LB:g=original	!	!	!	!	!	!
=11	=11	=11	=11	=11	=11	=11	=11	=11	=11	=11	=11
2.A\	.	.	2a\	.	4.cc#\	.	4.ee\	.	.	.	.
.	.	.	.	.	8b\	.	8dd\	.	.	.	.
.	.	.	4r	.	4a/	.	4cc#\	.	.	.	.
4D/	.	.	4f#\	.	4b/	.	4aa\	.	.	.	.
=12	=12	=12	=12	=12	=12	=12	=12	=12	=12	=12	=12
2E\	.	.	2e\	.	2a/	.	2cc#\	.	.	.	.
2EE/	4	.	2e\	.	2g#/	.	2b\	.	.	.	.
.	3	.	.	.	.	.	.	.	.	.	.
=13	=13	=13	=13	=13	=13	=13	=13	=13	=13	=13	=13
!	!	!	!LO:TX:a:t=Solo	!	!	!	!	!LO:DY:b:t=pia	!	!	!
2AA/	.	.	4c#/	.	2.a/	.	2.a/	p	4.ee\	A-	.
!	!	!	!	!LO:DY:b:t=piano	!	!	!	!	!	!	!
.	.	.	4A/	p	.	p	.	.	.	.	.
.	.	.	.	.	.	.	.	.	8cc#\	-mo	.
!	!	!	!	!	!	!LO:DY:b:t=pi&colon;	!	!	!LO:TX:t=P:global:problem=oddech jako rozdzielacz słów	!	!
2r	.	.	4A/	.	.	p	.	.	4a,<\	te	.
.	.	.	4B/	.	4e/	.	4g#/	.	4g#\	mi	.
=14	=14	=14	=14	=14	=14	=14	=14	=14	=14	=14	=14
*	*	*	*	*	*	*	*	*	*2\right	*	*
00r	.	.	4c#/	.	4e/	.	2a/	.	2a\	De-	.
.	.	.	4c#/	.	4e/	.	.	.	.	.	.
.	.	.	4c#/	.	4e/	.	4e/	.	4e/	-(us)	.
.	.	.	4A/	.	4cc#\	.	4ee\	.	4ee\	te	.
!	!	!	!LO:LB:g=original	!	!	!	!LO:LB:g=original	!	!	!	!
=15	=15	=15	=15	=15	=15	=15	=15	=15	=15	=15	=15
.	.	.	4d\	.	4a/	.	4ff#\	.	4ff#\	De-	.
.	.	.	4d\	.	4a/	.	4ee\	.	4ee\	-(us)	.
.	.	.	4e\	.	4b/	.	4.dd\	.	4.dd\	plus	.
.	.	.	4e\	.	4g#/	.	.	.	.	.	.
.	.	.	.	.	.	.	8cc#\	.	8cc#\	q(uam)	.
=16	=16	=16	=16	=16	=16	=16	=16	=16	=16	=16	=16
.	.	.	4a\	.	4a/	.	2.cc#\	.	2.cc#\	me	.
.	.	.	4A/	.	4e/	.	.	.	.	.	.
.	.	.	4A/	.	4e/	.	.	.	.	.	.
.	.	.	4a\	.	4a/	.	4cc#\	.	4cc#\	na(m)	.
=17	=17	=17	=17	=17	=17	=17	=17	=17	=17	=17	=17
.	.	.	4g#\	.	4b/	.	4b\	.	4b\	pri-	.
.	.	.	4g#\	.	4b/	.	4ee\	.	4ee\	-or	.
.	.	.	4f#\	.	4a/	.	4a\	.	4a\	tu	.
.	.	.	4f#\	.	4a/	.	4ee\	.	8cc#\L	a-	.
.	.	.	.	.	.	.	.	.	8a\J	.	.
=18	=18	=18	=18	=18	=18	=18	=18	=18	=18	=18	=18
00r	.	.	2.e\	.	4g#/	.	4g#/	.	4g#\	-ma-	.
!	!	!	!	!	!	!	!	!	!LO:TX:a:t=P:problem=wszystkie custos użyte jako łamanie pięciolinii	!	!
.	.	.	.	.	4f#/	.	4a/	.	4a\	-sti	.
*	*	*	*	*	*	*	*	*	*custos:b	*	*
*	*	*	*	*	*	*	*	*	*custos:g	*	*
!	!	!	!	!	!	!	!	!	!LO:LB:g=original	!	!
.	.	.	.	.	4g#/	.	4b/	.	4b,<\	me	.
.	.	.	4a\	.	4e/	.	4cc#/	.	4cc#\	na(m)	.
=19	=19	=19	=19	=19	=19	=19	=19	=19	=19	=19	=19
.	.	.	4g#\	.	4g#/	.	4b\	.	4b\	pri-	.
.	.	.	4g#\	.	4b/	.	4ee\	.	4ee\	-or	.
.	.	.	4f#\	.	4a/	.	4a/	.	4a\	tu	.
.	.	.	4f#\	.	4g#/	.	4ee\	.	4a\	a-	.
=20	=20	=20	=20	=20	=20	=20	=20	=20	=20	=20	=20
.	.	.	2.e\	.	4g#/	.	4g#/	.	4g#\	-ma-	.
.	.	.	.	.	4f#/	.	4a/	.	4a\	-sti	.
.	.	.	.	.	2g#/	.	[y2b/	.	[<2b\	me	.
.	.	.	4f#\	.	.	.	.	.	.	.	.
=21	=21	=21	=21	=21	=21	=21	=21	=21	=21	=21	=21
!	!	!	!	!	!	!	!LO:N:xstem:cue	!	!	!	!
.	.	.	2.g#\	.	(4g#/	.	4b/]	.	4b,<\]	.	.
.	.	.	.	.	4a/)	.	4cc#\	.	4cc#\	pri-	.
.	.	.	.	.	4g#/	.	4b\	.	(4b\	-or	.
.	.	.	4a\	.	4f#/	.	4a\	.	4a\)	a-	.
=22	=22	=22	=22	=22	=22	=22	=22	=22	=22	=22	=22
1r	.	.	4b\	.	2e/	.	2g#/	.	2g#/	-ma-	.
.	.	.	4b\	.	.	.	.	.	.	.	.
.	.	.	4B/	.	2d#X/	.	2f#/	.	2f#/	-sti	.
.	.	.	4B/	.	.	.	.	.	.	.	.
=23	=23	=23	=23	=23	=23	=23	=23	=23	=23	=23	=23
4E\	.	.	4e\	.	2.e/	.	2.e/	.	2.e/	me	.
!	!	!	!	!LO:DY:b:t=Fo&colon;	!	!	!	!	!	!	!
8E\L	.	.	8g#\L	f	.	.	.	.	.	.	.
8D\J	6	.	8f#\J	.	.	.	.	.	.	.	.
!	!	!	!	!	!	!LO:DY:b:t=For&colon;	!	!	!	!	!
4C#/	6 4	.	4e\	.	.	f	.	.	.	.	.
!	!	!	!	!	!	!	!	!LO:DY:b:t=For.	!	!	!
4BB/	x 3	.	4d\	.	[<4cc#\	.	[<4ee\	f	4r	.	.
!	!	!	!	!	!LO:LB:g=original	!	!	!	!	!	!
=24	=24	=24	=24	=24	=24	=24	=24	=24	=24	=24	=24
!	!	!	!	!	!LO:TX:t=P:problem=brak zakończenia ligatury	!	!	!	!	!	!
2.AA/	.	.	4c#\	.	4cc#\]	.	4ee\]	.	00r	.	.
.	.	.	4a\	.	8dd\L	.	8ff#\L	.	.	.	.
.	.	.	.	.	8cc#\J	.	8ee\J	.	.	.	.
.	.	.	4a\	.	8b\L	.	8dd\L	.	.	.	.
.	.	.	.	.	8a\	.	8cc#\	.	.	.	.
4A\	.	.	4a\	.	8dd\	.	8b\	.	.	.	.
.	.	.	.	.	8cc#\J	.	8a\J	.	.	.	.
=25	=25	=25	=25	=25	=25	=25	=25	=25	=25	=25	=25
4D\	.	.	4f#\	.	2dd\	.	2ff#\	.	.	.	.
4F#\	.	.	4d\	.	.	.	.	.	.	.	.
4A\	.	.	4a\	.	4cc#\	.	4ee\	.	.	.	.
4r	.	.	4r	.	4r	.	4aa\	.	.	.	.
!	!	!	!LO:LB:g=original	!	!	!	!	!	!	!	!
=26	=26	=26	=26	=26	=26	=26	=26	=26	=26	=26	=26
4d\	.	.	4f#\	.	4dd\	.	(8ff#\L	.	.	.	.
.	.	.	.	.	.	.	8dd\	.	.	.	.
4D/	.	.	4f#\	.	4dd\	.	8cc#\)	.	.	.	.
.	.	.	.	.	.	.	8dd\J|	.	.	.	.
4F#\	.	.	4f#\	.	4dd\	.	(8ff#\L	.	.	.	.
.	.	.	.	.	.	.	8dd\	.	.	.	.
4D\	.	.	4f#\	.	4dd\	.	8cc#\)	.	.	.	.
.	.	.	.	.	.	.	8dd\J|	.	.	.	.
!	!	!	!	!	!	!	!LO:PB:g=original	!	!	!	!
=27	=27	=27	=27	=27	=27	=27	=27	=27	=27	=27	=27
4D\	.	.	2a\	.	2.cc#\	.	8ee\L	.	.	.	.
.	.	.	.	.	.	.	8dd\	.	.	.	.
4F#\	.	.	.	.	.	.	8cc#\J	.	.	.	.
!	!	!	!	!	!	!	!LO:N:vis=4	!	!	!	!
.	.	.	.	.	.	.	8b\	.	.	.	.
4A\	.	.	2e\	.	.	.	4a/	.	.	.	.
4r	.	.	.	.	4cc#\	.	4aa\	.	.	.	.
!LO:LB:g=original	!	!	!	!	!	!	!	!	!	!	!
=28	=28	=28	=28	=28	=28	=28	=28	=28	=28	=28	=28
4d\	.	.	4f#\	.	4dd\	.	(8ff#\L	.	00r	.	.
.	.	.	.	.	.	.	8dd\	.	.	.	.
!	!	!	!	!	!	!	!	!LO:DY:b:t=pi.	!	!	!
4D/	.	.	4f#\	.	4dd\	.	8cc#\)	p	.	.	.
.	.	.	.	.	.	.	8dd\J|	.	.	.	.
4F#\	.	.	4f#\	.	4dd\	.	(8ff#\L	.	.	.	.
.	.	.	.	.	.	.	8dd\	.	.	.	.
4D\	.	.	4f#\	.	4dd\	.	8cc#\)	.	.	.	.
.	.	.	.	.	.	.	8dd\J|	.	.	.	.
=29	=29	=29	=29	=29	=29	=29	=29	=29	=29	=29	=29
2A\	.	.	2e\	.	2.cc#\	.	8ee\L	.	.	.	.
.	.	.	.	.	.	.	8dd\	.	.	.	.
.	.	.	.	.	.	.	8cc#\	.	.	.	.
.	.	.	.	.	.	.	8b\J	.	.	.	.
2AA/	.	.	2a\	.	.	.	4a/	.	.	.	.
.	.	.	.	.	4cc#\	.	4ee\	.	.	.	.
=30	=30	=30	=30	=30	=30	=30	=30	=30	=30	=30	=30
!	!	!	!	!	!	!	!	!LO:DY:b:t=Fo&colon;	!	!	!
4B\	.	.	4e\	.	(8b/L	.	(8dd\L	f	.	.	.
.	.	.	.	.	8a/)	.	8cc#\	.	.	.	.
4E\	7	.	4e\	.	(8b/	.	8dd\)	.	.	.	.
.	.	.	.	.	8g#/J)	.	8b\J|	.	.	.	.
4A\	.	.	4e\	.	(8a/L	.	(8cc#\L	.	.	.	.
.	.	.	.	.	8g#/)	.	8b\	.	.	.	.
4AA/	.	.	4c#\	.	(8a/	.	8cc#\)	.	.	.	.
.	.	.	.	.	8f#/J)	.	8a\J|	.	.	.	.
=31	=31	=31	=31	=31	=31	=31	=31	=31	=31	=31	=31
2D\	.	.	4.e\	.	4.g#/	.	4.b/	.	.	.	.
.	.	.	8e\	.	8g#/	.	8e/	.	.	.	.
2r	.	.	8e\L	.	8g#/L	.	8b/L	.	.	.	.
.	.	.	8e\	.	8g#/	.	8e/	.	.	.	.
.	.	.	8e\	.	8g#/	.	8b/	.	.	.	.
.	.	.	8e\J	.	8g#/J	.	8e/J	.	.	.	.
=32	=32	=32	=32	=32	=32	=32	=32	=32	=32	=32	=32
2E\	6 4	.	4.e\	.	4.a/	.	4.cc#\	.	00r	.	.
.	.	.	8e\	.	8a/	.	8e/	.	.	.	.
!	!	!	!	!	!	!	!LO:TX:t=P:problem=mixed beam	!	!	!	!
2r	.	.	8e\L	.	8a/L	.	8cc#\L	.	.	.	.
.	.	.	8e\	.	8a/	.	8e/	.	.	.	.
.	.	.	8e\	.	8a/	.	8cc#\	.	.	.	.
.	.	.	8e\J	.	8a/J	.	8e/J	.	.	.	.
=33	=33	=33	=33	=33	=33	=33	=33	=33	=33	=33	=33
2E\	7	.	4.g#\	.	4.b\	.	4.dd\	.	.	.	.
.	.	.	8g#\	.	8b\	.	8e/	.	.	.	.
!	!	!	!	!	!	!	!LO:TX:t=P:problem=mixed beam	!	!	!	!
2r	.	.	8g#\L	.	8b\L	.	8dd\L	.	.	.	.
.	.	.	8g#\	.	8b\	.	8e/	.	.	.	.
.	.	.	8g#\	.	8b\	.	8dd\	.	.	.	.
.	.	.	8g#\J	.	8b\J	.	8e/J	.	.	.	.
!	!	!	!	!	!LO:PB:g=original	!	!	!	!	!	!
=34	=34	=34	=34	=34	=34	=34	=34	=34	=34	=34	=34
2.A\	.	.	2.a\	.	4.cc#\	.	4.ee\	.	.	.	.
.	.	.	.	.	8b\	.	8dd\	.	.	.	.
.	.	.	.	.	4a/	.	4cc#\	.	.	.	.
4D/	.	.	4f#\	.	4b/	.	4aa\	.	.	.	.
!	!	!	!LO:PB:g=original	!	!	!	!LO:LB:g=original	!	!	!	!
=35	=35	=35	=35	=35	=35	=35	=35	=35	=35	=35	=35
2E\	.	.	2e\	.	2a/	.	2cc#\	.	.	.	.
2EE/	4	.	2e\	.	2g#/	.	2b\	.	.	.	.
.	3	.	.	.	.	.	.	.	.	.	.
=36	=36	=36	=36	=36	=36	=36	=36	=36	=36	=36	=36
2AA/	.	.	4c#/	.	4.cc#\	.	4.ee\	.	4.ee\	A-	.
.	.	.	4A/	.	.	.	.	.	.	.	.
!	!	!	!	!	!	!LO:DY:b:t=pia&colon;	!	!	!	!	!
.	.	.	.	.	8a/	p	8cc#\	.	8cc#\	-mo	.
!	!	!	!LO:TX:b:t=Solo	!	!	!	!	!	!	!	!
2r	.	.	4B/	.	4a/	.	4a/	.	4a\	te	.
.	.	.	4c#/	.	4g#/	.	4g#/	.	4g#\	mi	.
=37	=37	=37	=37	=37	=37	=37	=37	=37	=37	=37	=37
00r	.	.	4c#/	.	4e/	.	2a/	.	2a\	De-	.
.	.	.	4c#/	.	4e/	.	.	.	.	.	.
!	!	!	!	!	!	!	!	!	!LO:LB:g=original	!	!
.	.	.	4c#/	.	4e/	.	4e/	.	4e/	-us	.
.	.	.	4c#/	.	4a/	.	4ee\	.	4ee\	te	.
=38	=38	=38	=38	=38	=38	=38	=38	=38	=38	=38	=38
.	.	.	4d\	.	4dd\	.	4ff#\	.	4ff#\	De-	.
.	.	.	4d\	.	4cc#\	.	4ee\	.	4ee\	-(us)	.
.	.	.	4e\	.	4.b\	.	4.dd\	.	4.dd\	plus	.
.	.	.	4e\	.	.	.	.	.	.	.	.
.	.	.	.	.	8a/	.	8cc#\	.	8cc#\	q(uam)	.
=39	=39	=39	=39	=39	=39	=39	=39	=39	=39	=39	=39
.	.	.	4a\	.	4a/	.	2.cc#\	.	2.cc#\	me	.
.	.	.	4A/	.	4e/	.	.	.	.	.	.
.	.	.	4A/	.	4e/	.	.	.	.	.	.
.	.	.	4a\	.	4a/	.	4cc#\	.	4cc#\	na(m)	.
=40	=40	=40	=40	=40	=40	=40	=40	=40	=40	=40	=40
!	!	!	!	!	!	!	!	!LO:DY:b:t=fo.	!	!	!
.	.	.	4g#\	.	4b/	.	4b\	f	4b\	pri-	.
!	!	!	!	!	!	!LO:DY:b:t=for.	!	!	!	!	!
.	.	.	4g#\	.	4b/	f	4ee\	.	4ee\	-or	.
!	!	!	!	!	!	!	!	!	!LO:N:vis=8	!	!
.	.	.	4f#\	.	4a/	.	4a/	.	4a\	tu	.
.	.	.	4f#\	.	4a/	.	4ee\	.	(16f#/LL	a-	.
.	.	.	.	.	.	.	.	.	16g#/J	.	.
.	.	.	.	.	.	.	.	.	8a/J)	.	.
=41	=41	=41	=41	=41	=41	=41	=41	=41	=41	=41	=41
00r	.	.	2.e\	.	4g#/	.	4g#/	.	4g#\	-ma-	.
.	.	.	.	.	4f#/	.	4a/	.	4a\	-sti	.
.	.	.	.	.	4g#/	.	4b/	.	4b,<\	me	.
.	.	.	4a\	.	4a/	.	4cc#/	.	4cc#\	na(m)	.
=42	=42	=42	=42	=42	=42	=42	=42	=42	=42	=42	=42
!	!	!	!	!	!	!	!	!LO:DY:b:t=pi.	!	!	!
.	.	.	4g#\	.	4b/	.	4b\	p	4b\	pri-	.
!	!	!	!	!	!	!LO:DY:b:t=pia	!	!	!	!	!
.	.	.	4g#\	.	4b/	p	4ee\	.	4ee\	-or	.
.	.	.	4f#\	.	4a/	.	4a/	.	4a\	tu	.
.	.	.	4f#\	.	4a/	.	4ee\	.	4ee\	a-	.
=43	=43	=43	=43	=43	=43	=43	=43	=43	=43	=43	=43
.	.	.	2.e\	.	4g#/	.	4g#/	.	4g#\	-ma-	.
.	.	.	.	.	4f#/	.	4a/	.	4a\	-sti	.
*	*	*	*	*	*	*	*	*	*custos:b	*	*
*	*	*	*	*	*	*	*	*	*custos:g	*	*
!	!	!	!	!	!	!	!	!	!LO:LB:g=original	!	!
.	.	.	.	.	2g#/	.	[y2b/	.	[<2b\	me	.
.	.	.	4f#\	.	.	.	.	.	.	.	.
=44	=44	=44	=44	=44	=44	=44	=44	=44	=44	=44	=44
!	!	!	!	!	!	!	!LO:N:xstem:cue	!	!	!	!
.	.	.	2.g#\	.	4g#/	.	4b/]	.	4b,<\]	.	.
.	.	.	.	.	4a/	.	4cc#\	.	4cc#\	pri-	.
.	.	.	.	.	4g#/	.	4b\	.	(4b\	-or	.
.	.	.	4a\	.	4f#/	.	4a\	.	4a\)	a-	.
!	!	!	!	!	!LO:LB:g=original	!	!	!	!	!	!
=45	=45	=45	=45	=45	=45	=45	=45	=45	=45	=45	=45
00r	.	.	4b\	.	2e/	.	2g#/	.	2g#/	-ma-	.
.	.	.	4b\	.	.	.	.	.	.	.	.
.	.	.	4B/	.	2d#X/	.	2f#/	.	2f#/	-sti	.
.	.	.	4B/	.	.	.	.	.	.	.	.
=46	=46	=46	=46	=46	=46	=46	=46	=46	=46	=46	=46
.	.	.	4e\	.	2.e/	.	2.e/	.	2.e/	me	.
.	.	.	4e\	.	.	.	.	.	.	.	.
!	!	!	!	!	!	!LO:DY:b:t=for.	!	!	!	!	!
.	.	.	4e\	.	.	f	.	.	.	.	.
.	.	.	4e\	.	8g#/L	.	8g#/L	.	(8g#\L	O	.
.	.	.	.	.	8f#/J	.	8a/J	.	8a\J)	.	.
!	!	!	!LO:LB:g=original	!	!	!	!	!	!	!	!
=47	=47	=47	=47	=47	=47	=47	=47	=47	=47	=47	=47
.	.	.	4e\	.	4.g#/	.	4.b/	.	4.b\	De-	.
.	.	.	4e\	.	.	.	.	.	.	.	.
.	.	.	.	.	8g#/	.	8e/	.	8e/	-(us)	.
.	.	.	4e\	.	4g#/	.	4e/	.	4e/	E-	.
.	.	.	4r	.	4g#/	.	4b/	.	4b\	-go	.
!	!	!	!	!	!	!	!LO:LB:g=original	!	!	!	!
=48	=48	=48	=48	=48	=48	=48	=48	=48	=48	=48	=48
.	.	.	4e\	.	4.a/	.	4.cc#\	.	4.cc#\	A-	.
.	.	.	4e\	.	.	.	.	.	.	.	.
.	.	.	.	.	8a/	.	8e/	.	8e/	-mo	.
.	.	.	4e\	.	4a/	.	4e/	.	4e/	te	.
.	.	.	4r	.	4a/	.	4cc#\	.	4cc#\	mi	.
=49	=49	=49	=49	=49	=49	=49	=49	=49	=49	=49	=49
00r	.	.	4e\	.	2a/	.	2cc#\	.	2cc#\	De-	.
.	.	.	4e\	.	.	.	.	.	.	.	.
!	!	!	!	!	!	!	!	!	!	!	!LO:DY:a:t=piano
.	.	.	4e\	.	4g#/	.	4b/	.	4b\	-(us)	p
.	.	.	4r	.	8g#/L	.	8g#/L	.	(8g#\L	O	.
.	.	.	.	.	8f#/J	.	8a/J	.	8a\J)	.	.
!	!	!	!	!	!	!	!	!	!LO:PB:g=original	!	!
=50	=50	=50	=50	=50	=50	=50	=50	=50	=50	=50	=50
!	!	!	!	!	!	!	!	!LO:DY:b:t=p..	!	!	!
.	.	.	4e\	.	4.g#/	.	4.b/	p	4.b\	De-	.
!	!	!	!	!	!	!LO:DY:b:t=pia.	!	!	!	!	!
.	.	.	4e\	.	.	p	.	.	.	.	.
.	.	.	.	.	8g#/	.	8e/	.	8e/	-(us)	.
.	.	.	4e\	.	4g#/	.	4e/	.	4e/	E-	.
.	.	.	4e\	.	4g#/	.	4b/	.	4b\	-go	.
=51	=51	=51	=51	=51	=51	=51	=51	=51	=51	=51	=51
.	.	.	4e\	.	4.a/	.	4.cc#\	.	4.cc#\	A-	.
.	.	.	4e\	.	.	.	.	.	.	.	.
.	.	.	.	.	8a/	.	8e/	.	8e/	-mo	.
.	.	.	4e\	.	4a/	.	4e/	.	4e,</	te	.
.	.	.	4r	.	4a/	.	4cc#\	.	4cc#\	mi	.
=52	=52	=52	=52	=52	=52	=52	=52	=52	=52	=52	=52
.	.	.	4e\	.	2a/	.	2cc#\	.	2cc#\	De-	.
.	.	.	4e\	.	.	.	.	.	.	.	.
.	.	.	4e\	.	4g#/	.	4b\	.	4b,<\	-(us)	.
.	.	.	4r	.	4r	.	4cc#\	.	4cc#\	na(m)	.
=53	=53	=53	=53	=53	=53	=53	=53	=53	=53	=53	=53
!	!	!	!	!	!	!	!	!	!LO:N:vis=16	!	!
00r	.	.	4B/	.	4f#/	.	8dd#X\L	.	(8dd#X\L	pri-	.
!	!	!	!	!	!	!	!	!	!LO:N:vis=16	!	!
.	.	.	.	.	.	.	8cc#\	.	8cc#\J)	.	.
.	.	.	4B/	.	4f#/	.	8dd#\	.	(8dd#\L	-or	.
.	.	.	.	.	.	.	8b\J	.	8b\J)	.	.
.	.	.	4B/	.	4g#/	.	8ee\L	.	(8ee\L	tu	.
.	.	.	.	.	.	.	8dd#X\	.	8dd#X\J)	.	.
.	.	.	4B/	.	4b/	.	8ee\	.	(8ee\L	a-	.
.	.	.	.	.	.	.	8b\J	.	8b\J)	.	.
=54	=54	=54	=54	=54	=54	=54	=54	=54	=54	=54	=54
.	.	.	4b\	.	4.dd#X\	.	4.ff#\	.	(4.ff#\	-ma-	.
.	.	.	4b\	.	.	.	.	.	.	.	.
.	.	.	.	.	8cc#\	.	8ee\	.	8ff#\)	.	.
.	.	.	4b\	.	8dd#\L	.	8ff#\L	.	(8ff#\L	.	.
.	.	.	.	.	8cc#\	.	8ee\	.	8ee\)	.	.
.	.	.	4b\	.	8dd#\	.	8ff#\	.	(8ff#\	.	.
.	.	.	.	.	8b\J	.	8b\J	.	8g#\J)	.	.
!	!	!	!	!	!LO:LB:g=original	!	!	!	!	!	!
=55	=55	=55	=55	=55	=55	=55	=55	=55	=55	=55	=55
.	.	.	2.e\	.	4.ee\	.	4.gg#\	.	(4.gg#X\	.	.
.	.	.	.	.	8dd#X\	.	8ff#\	.	8ff#\)	.	.
.	.	.	.	.	8cc#\L	.	8ee\L	.	(8ee\L	.	.
!	!	!	!	!	!	!	!	!	!LO:SIC:v:s=dd#/	!	!
.	.	.	.	.	8b\	.	8dd#X\	.	8dd\	.	.
.	.	.	4e\	.	8a\	.	8cc#\	.	8cc#\)	.	.
.	.	.	.	.	8g#\J	.	8b\J	.	(8b\J	.	.
=56	=56	=56	=56	=56	=56	=56	=56	=56	=56	=56	=56
.	.	.	2d\	.	2f#/	.	2a/	.	2a\)	-sti	.
.	.	.	4e\	.	4e/	.	4g#/	.	4g#/	A-	.
.	.	.	4a\	.	4f#/	.	4f#/	.	4f#/	.	.
=57	=57	=57	=57	=57	=57	=57	=57	=57	=57	=57	=57
1r	.	.	4b\	.	2.d#X/	.	2.f#/	.	2.f#/	-ma-	.
!	!	!	!LO:TX:a:t=P:problem=wszystkie custos użyte jako łamanie pięciolinii	!	!	!	!	!	!	!	!
.	.	.	4b\	.	.	.	.	.	.	.	.
*	*	*	*custos:f	*	*	*	*	*	*	*	*
*	*	*	*custos:d	*	*	*	*	*	*	*	*
!	!	!	!LO:LB:g=original	!	!	!	!	!	!	!	!
.	.	.	4B/	.	.	.	.	.	.	.	.
.	.	.	4B/	.	[<4e/	.	4e/	.	4e/	-sti	.
!LO:LB:g=original	!	!	!	!	!	!	!LO:LB:g=original	!	!LO:LB:g=original	!	!
=58	=58	=58	=58	=58	=58	=58	=58	=58	=58	=58	=58
!	!	!	!	!	!	!	!	!LO:DY:b:t=For.	!	!	!
4E\	.	.	4e\	.	4.e/]	.	4.e/	f	2.e/	me	.
4E\	.	.	4e\	.	.	.	.	.	.	.	.
!	!	!	!	!	!	!LO:DY:b:t=for&colon;	!	!	!	!	!
.	.	.	.	.	8e/	f	8e/	.	.	.	.
4E\	.	.	4g#\	.	8g#/L	.	8g#/L	.	.	.	.
.	.	.	.	.	8e/	.	8e/	.	.	.	.
4E\	.	.	4g#\	.	8g#/	.	8g#/	.	4r	.	.
.	.	.	.	.	8a/J	.	8b/J	.	.	.	.
=59	=59	=59	=59	=59	=59	=59	=59	=59	=59	=59	=59
2E\	.	.	2g#\	.	4.ee\	.	4.ee\	.	00r	.	.
.	.	.	.	.	8ee\	.	8gg#\	.	.	.	.
2AA/	6	.	2a\	.	4cc#\	.	4ff#\	.	.	.	.
.	5	.	.	.	4cc#\	.	4ee\	.	.	.	.
=60	=60	=60	=60	=60	=60	=60	=60	=60	=60	=60	=60
4BB/	#	.	4f#\	.	4b\	.	4dd#X\	.	.	.	.
4B\	.	.	4f#\	.	4b\	.	4.b\	.	.	.	.
4B\	.	.	4f#\	.	4dd#X\	.	.	.	.	.	.
.	.	.	.	.	.	.	8ff#\L	.	.	.	.
4A\	.	.	4f#\	.	4dd#\	.	8gg#\	.	.	.	.
.	.	.	.	.	.	.	8aa\J	.	.	.	.
=61	=61	=61	=61	=61	=61	=61	=61	=61	=61	=61	=61
4G#\	.	.	4g#\	.	4ee\	.	8bb\L	.	.	.	.
.	.	.	.	.	.	.	8gg#\	.	.	.	.
4G#\	.	.	4g#\	.	4gg#\	.	8ff#\	.	.	.	.
.	.	.	.	.	.	.	8b\J	.	.	.	.
4G#\	5	.	4b\	.	4gg#\	.	8bb\L	.	.	.	.
.	.	.	.	.	.	.	8gg#\	.	.	.	.
4G#\	#	.	4b\	.	4gg#\	.	8ee\	.	.	.	.
.	.	.	.	.	.	.	8b\J	.	.	.	.
=62	=62	=62	=62	=62	=62	=62	=62	=62	=62	=62	=62
2A\	.	.	2a\	.	2cc#\	.	8cc#\L	.	.	.	.
.	.	.	.	.	.	.	8a\	.	.	.	.
.	.	.	.	.	.	.	8cc#\	.	.	.	.
.	.	.	.	.	.	.	8ee\J	.	.	.	.
2r	.	.	2r	.	2r	.	8cc#\L	.	.	.	.
.	.	.	.	.	.	.	8a\	.	.	.	.
.	.	.	.	.	.	.	8aa\	.	.	.	.
.	.	.	.	.	.	.	8bb\J	.	.	.	.
=63	=63	=63	=63	=63	=63	=63	=63	=63	=63	=63	=63
4F#\	7	.	4a\	.	4ee\	.	8ccc#\L	.	00r	.	.
.	.	.	.	.	.	.	8aa\	.	.	.	.
4F#\	.	.	4a\	.	4ee\	.	8ff#\	.	.	.	.
.	.	.	.	.	.	.	8ee\J	.	.	.	.
4F#\	.	.	4cc#\	.	4ee\	.	8ccc#\L	.	.	.	.
.	.	.	.	.	.	.	8aa\	.	.	.	.
4F#\	.	.	4cc#\	.	4ee\	.	8ff#\	.	.	.	.
.	.	.	.	.	.	.	8ee\J	.	.	.	.
=64	=64	=64	=64	=64	=64	=64	=64	=64	=64	=64	=64
2B\	#	.	2b\	.	2.dd#X\	.	8dd#X\L	.	.	.	.
.	.	.	.	.	.	.	8b\	.	.	.	.
.	.	.	.	.	.	.	8dd#\	.	.	.	.
.	.	.	.	.	.	.	8ff#\J	.	.	.	.
2r	.	.	2r	.	.	.	8dd#X\L	.	.	.	.
.	.	.	.	.	.	.	8b\	.	.	.	.
.	.	.	.	.	8dd#\L	.	8dd#\	.	.	.	.
.	.	.	.	.	8ee\J	.	16ff#\L	.	.	.	.
.	.	.	.	.	.	.	16gg#\JJ	.	.	.	.
=65	=65	=65	=65	=65	=65	=65	=65	=65	=65	=65	=65
!	!	!	!	!	!LO:TX:t=P:problem=brak taktu	!	!	!	!	!	!
00r	.	.	4B/	.	1ryy	.	4aa\	.	.	.	.
.	.	.	4B/	.	.	.	(8gg#\L	.	.	.	.
.	.	.	.	.	.	.	8ff#\J)	.	.	.	.
!	!	!	!	!	!	!	!LO:LB:g=original	!	!	!	!
.	.	.	4B/	.	.	.	4ff#\	.	.	.	.
.	.	.	4B/	.	.	.	(8ee\L	.	.	.	.
.	.	.	.	.	.	.	8dd#X\J)	.	.	.	.
=66	=66	=66	=66	=66	=66	=66	=66	=66	=66	=66	=66
.	.	.	4B/	.	4.ff#\	.	4dd#X\	.	.	.	.
!	!	!	!	!LO:DY:b:t=pr	!	!	!	!	!	!	!
.	.	.	4B/	p	.	.	(8cc#\L	.	.	.	.
.	.	.	.	.	8ff#\	.	8b\J)	.	.	.	.
!	!	!	!	!	!LO:LB:g=original	!	!	!	!	!	!
.	.	.	4B/	.	8ff#\L	.	4b\	.	.	.	.
.	.	.	.	.	8ff#\	.	.	.	.	.	.
.	.	.	4B/	.	8ff#\	.	4aa\	.	.	.	.
.	.	.	.	.	8ff#\J	.	.	.	.	.	.
=67	=67	=67	=67	=67	=67	=67	=67	=67	=67	=67	=67
.	.	.	4B/	.	4.ee\	.	4.gg#\	.	0r	.	.
.	.	.	4B/	.	.	.	.	.	.	.	.
.	.	.	.	.	8ee\	.	8ee\	.	.	.	.
.	.	.	4B/	.	8ee\L	.	8ee\L	.	.	.	.
.	.	.	.	.	8ee\	.	8b\	.	.	.	.
.	.	.	4B/	.	8ee\	.	8b\	.	.	.	.
.	.	.	.	.	8ee\J	.	8gg#\J	.	.	.	.
=68	=68	=68	=68	=68	=68	=68	=68	=68	=68	=68	=68
.	.	.	4B/	.	4.ff#\	.	8aa\L	.	.	.	.
.	.	.	.	.	.	.	(16gg#\L	.	.	.	.
.	.	.	.	.	.	.	16ff#\JJ)	.	.	.	.
.	.	.	4B/	.	.	.	8ff#\L	.	.	.	.
.	.	.	.	.	8ff#\	.	(16ee\L	.	.	.	.
.	.	.	.	.	.	.	16dd#X\JJ)	.	.	.	.
!	!	!	!LO:LB:g=original	!	!	!	!	!	!	!	!
.	.	.	4B/	.	8ff#\L	.	8dd#\L	.	.	.	.
.	.	.	.	.	8ff#\	.	(16cc#\L	.	.	.	.
.	.	.	.	.	.	.	16b\JJ)	.	.	.	.
.	.	.	4r	.	8ff#\	.	8b\L	.	.	.	.
.	.	.	.	.	8ff#\J	.	8aa\J	.	.	.	.
=69	=69	=69	=69	=69	=69	=69	=69	=69	=69	=69	=69
!LO:TX:t=P:problem=brak t. 70	!	!	!LO:TX:t=P:problem=brak taktu	!	!	!	!	!	!	!	!
1ryy	.	.	1ryy	.	4.ee\	.	4.gg#\	.	1r	.	.
.	.	.	.	.	8ee\	.	8ee\	.	.	.	.
.	.	.	.	.	8ee\L	.	8ee\L	.	.	.	.
.	.	.	.	.	8ee\	.	8b\	.	.	.	.
.	.	.	.	.	8ee\	.	8b\	.	.	.	.
.	.	.	.	.	8ee\J	.	8gg#\J	.	.	.	.
=70	=70	=70	=70	=70	=70	=70	=70	=70	=70	=70	=70
!	!	!	!	!	!	!	!	!	!LO:TX:t=P:problem=brak taktu	!	!
4B\	#	.	4B/	.	4dd#X\	.	8ff#\L	.	1ryy	.	.
.	.	.	.	.	.	.	8aa\	.	.	.	.
4E\	.	.	4e\	.	4ff#\	.	8gg#\	.	.	.	.
.	.	.	.	.	.	.	8ff#\J	.	.	.	.
4AA/	6 4	.	4f#\	.	4ee\	.	4.ff#\	.	.	.	.
4BB/	5 #	.	4f#\	.	4dd#X\	.	.	.	.	.	.
.	.	.	.	.	.	.	8ee\	.	.	.	.
=71	=71	=71	=71	=71	=71	=71	=71	=71	=71	=71	=71
4E\	.	.	8g#\L	.	2.ee\	.	2ee\	.	2r	.	.
.	.	.	8f#\	.	.	.	.	.	.	.	.
4E\	.	.	8g#\	.	.	.	.	.	.	.	.
.	.	.	8a\J	.	.	.	.	.	.	.	.
4E\	.	.	4g#\	.	.	.	2r	.	4r	.	.
4D-X\	4 2	.	4g#\	.	4r	.	.	.	4e/	O	.
!LO:LB:g=original	!	!	!	!	!	!	!	!	!	!	!
=72	=72	=72	=72	=72	=72	=72	=72	=72	=72	=72	=72
2.C#/	6	.	2a\	.	00r	.	00r	.	4a\	De-	.
.	.	.	.	.	.	.	.	.	(8cc#\L	-(us)	.
.	.	.	.	.	.	.	.	.	8b\J)	.	.
.	.	.	2r	.	.	.	.	.	(8cc#\L	E-	.
.	.	.	.	.	.	.	.	.	8b\J)	.	.
4AA/	7	.	.	.	.	.	.	.	(8a\L	-go	.
.	.	.	.	.	.	.	.	.	8g#\J)	.	.
=73	=73	=73	=73	=73	=73	=73	=73	=73	=73	=73	=73
4D\	.	.	4r	.	.	.	.	.	4f#/	A-	.
8F#\L	.	.	4a\	.	.	.	.	.	4g#/	-mo	.
8E\J	.	.	.	.	.	.	.	.	.	.	.
4F#\	.	.	4a\	.	.	.	.	.	4a,<\	te	.
4D\	.	.	4a\	.	.	.	.	.	4f#/	na(m)	.
=74	=74	=74	=74	=74	=74	=74	=74	=74	=74	=74	=74
2.BB/	.	.	2.b\	.	.	.	.	.	4b\	pri-	.
.	.	.	.	.	.	.	.	.	(8dd\L	-or	.
.	.	.	.	.	.	.	.	.	8cc#\J)	.	.
.	.	.	.	.	.	.	.	.	(8dd\L	tu	.
.	.	.	.	.	.	.	.	.	8cc#\J)	.	.
4D/	6	.	4r	.	.	.	.	.	(8b\L	a-	.
.	5	.	.	.	.	.	.	.	8a\J)	.	.
=75	=75	=75	=75	=75	=75	=75	=75	=75	=75	=75	=75
4E\	.	.	4r	.	.	.	.	.	4g#\	-ma-	.
8G#\L	.	.	4B/	.	.	.	.	.	4a\	-sti	.
8F#\J	.	.	.	.	.	.	.	.	.	.	.
4G#\	.	.	4B/	.	.	.	.	.	4b,<\	me.	.
4E\	.	.	4B/	.	.	.	.	.	4b\	O	.
=76	=76	=76	=76	=76	=76	=76	=76	=76	=76	=76	=76
2.C#/	.	.	2c#/	.	0r	.	0r	.	4cc#\	De-	.
.	.	.	.	.	.	.	.	.	(8ee\L	-(us)	.
.	.	.	.	.	.	.	.	.	8dd\J)	.	.
.	.	.	2r	.	.	.	.	.	(8ee\L	E-	.
.	.	.	.	.	.	.	.	.	8dd\J)	.	.
4E\	6 5	.	.	.	.	.	.	.	(8cc#\L	-go	.
.	.	.	.	.	.	.	.	.	8b\J)	.	.
!	!	!	!	!	!	!	!	!	!LO:LB:g=original	!	!
=77	=77	=77	=77	=77	=77	=77	=77	=77	=77	=77	=77
4F#\	.	.	4r	.	.	.	.	.	4a\	A-	.
8A\L	.	.	4c#/	.	.	.	.	.	8cc#\L	-ma-	.
8G#\J	.	.	.	.	.	.	.	.	8b\J	.	.
8A\L	.	.	4c#/	.	.	.	.	.	4cc#,<\	-te	.
8G#\	.	.	.	.	.	.	.	.	.	.	.
8F#\	.	.	4c#/	.	.	.	.	.	4cc#\	na(m)	.
8E\J	.	.	.	.	.	.	.	.	.	.	.
=78	=78	=78	=78	=78	=78	=78	=78	=78	=78	=78	=78
2.D\	.	.	2.d\	.	1r	.	1r	.	4dd\	pri-	.
.	.	.	.	.	.	.	.	.	(8ff#\L	-or	.
.	.	.	.	.	.	.	.	.	8ee\J)	.	.
.	.	.	.	.	.	.	.	.	(8ff#\L	tu	.
.	.	.	.	.	.	.	.	.	8ee\J)	.	.
4F#\	6\ 5	.	4a\	.	.	.	.	.	(8dd\L	a-	.
.	.	.	.	.	.	.	.	.	8cc#\J)	.	.
!	!	!	!	!	!	!	!LO:LB:g=original	!	!	!	!
=79	=79	=79	=79	=79	=79	=79	=79	=79	=79	=79	=79
4E\	.	.	4g#\	.	2r	.	2r	.	4.b\	-ma-	.
4E\	.	.	4g#\	.	.	.	.	.	.	.	.
.	.	.	.	.	.	.	.	.	8e/	-sti	.
4E\	.	.	4g#\	.	4r	.	4r	.	4e,</	me	.
4r	.	.	4e\	.	4g#/	.	4a/	.	4b\	O	.
!	!	!	!LO:LB:g=original	!	!	!	!	!	!	!	!
=80	=80	=80	=80	=80	=80	=80	=80	=80	=80	=80	=80
!LO:TX:a:t=7	!	!	!LO:SIC:v:s=4d#\	!	!	!	!	!	!	!	!
00r	.	.	4d\	.	4.a/	.	4.ccn\	.	4.ccn\	De-	.
!	!	!	!LO:SIC:v:s=4d#\	!	!	!	!	!	!	!	!
.	.	.	4d\	.	.	.	.	.	.	.	.
.	.	.	.	.	8g#/	.	8b\	.	8b\	-(us)	.
!	!	!	!LO:SIC:v:s=4d#\	!	!	!	!LO:TX:a:t=bis	!	!	!	!
.	.	.	4d\	.	(8a/L	.	(8ccn\L	.	(8ccn\L	E-	.
.	.	.	.	.	8g#/	.	8b\	.	8b\J)	.	.
!	!	!	!LO:SIC:v:s=4d#\	!	!	!	!	!	!	!	!
.	.	.	4d\	.	8a/	.	8cc\)	.	(8cc\L	-go	.
.	.	.	.	.	8e/J)	.	8b\J	.	8b\J)	.	.
=81	=81	=81	=81	=81	=81	=81	=81	=81	=81	=81	=81
!	!	!	!LO:SIC:v:s=4d#\	!	!	!	!LO:SIC:v:s=ccn\	!	!LO:SIC:v:s=ccn\	!	!
.	.	.	4d\	.	4a/	.	4cc#\	.	4cc#\	A-	.
!	!	!	!LO:SIC:v:s=4d#\	!	!	!	!	!	!	!	!
.	.	.	4d\	.	4g#/	.	4b\	.	4b\	-mo	.
!	!	!	!LO:SIC:v:s=4d#\	!	!	!	!	!	!	!	!
.	.	.	4d\	.	4r	.	4dd#X\	.	4dd#X\	te	.
.	.	.	4r	.	4g#/	.	4b\	.	4b\	te	.
=82	=82	=82	=82	=82	=82	=82	=82	=82	=82	=82	=82
!	!	!	!LO:SIC:v:s=4d#\	!	!	!	!	!	!	!	!
.	.	.	4d\	.	4.a/	.	4.ccn\	.	4.ccn\	De-	.
!	!	!	!LO:SIC:v:s=4d#\	!	!	!	!	!	!	!	!
.	.	.	4d\	.	.	.	.	.	.	.	.
.	.	.	.	.	8g#/	.	8b\	.	8b\	-(us)	.
!	!	!	!LO:SIC:v:s=4d#\	!	!LO:LB:g=original	!	!	!	!	!	!
.	.	.	4d\	.	(8a/L	.	(8ccn\L	.	(8ccn\L	E-	.
.	.	.	.	.	8g#/)	.	8b\	.	8b\J)	.	.
!	!	!	!LO:SIC:v:s=4d#\	!	!	!	!	!	!	!	!
.	.	.	4d\	.	(8a/	.	8cc\	.	(8cc\L	-go	.
.	.	.	.	.	8e/J)	.	8b\J)	.	8b\J)	.	.
!	!	!	!	!	!	!	!	!	!LO:LB:g=original	!	!
=83	=83	=83	=83	=83	=83	=83	=83	=83	=83	=83	=83
!	!	!	!LO:SIC:v:s=4d#\	!	!	!	!	!	!LO:SIC:v:s=ccn\	!	!
.	.	.	4d\	.	4a/	.	4ccn\	.	4cc#\	a-	.
!	!	!	!LO:SIC:v:s=4d#\	!	!	!	!	!	!	!	!
.	.	.	4d\	.	4g#/	.	4b\	.	4b\	-mo	.
!	!	!	!LO:SIC:v:s=4d#\	!	!	!	!	!	!	!	!
.	.	.	4d\	.	4r	.	4dd#X\	.	4ff#,<\	te	.
.	.	.	4r	.	4g#/	.	4b\	.	4b\	nam	.
=84	=84	=84	=84	=84	=84	=84	=84	=84	=84	=84	=84
!	!	!	!	!	!	!	!LO:TX:a:t=bis	!	!	!	!
0r	.	.	4d#X\	.	8f#/L	.	(8a/L	.	(8a\L	pri-	.
.	.	.	.	.	8e/J	.	8g#/J)	.	8g#\J)	.	.
.	.	.	4d#\	.	4f#/	.	4a/	.	4a\	-or	.
.	.	.	4d#\	.	8f#/L	.	8a/L	.	(8a\L	tu	.
!	!	!	!	!	!	!	!LO:TX:a:t=Repete	!	!	!	!
.	.	.	.	.	8e/J	.	8g#/J	.	8g#\J)	.	.
.	.	.	4d#\	.	4f#/	.	4a/	.	4a\	A-	.
=85	=85	=85	=85	=85	=85	=85	=85	=85	=85	=85	=85
.	.	.	4e\	.	4.f#/	.	4.a/	.	4.a\	-ma-	.
.	.	.	4e\	.	.	.	.	.	.	.	.
.	.	.	.	.	8e/	.	8g#/	.	8g#\	-sti	.
.	.	.	4e\	.	4e/	.	4g#/	.	4g#,<\	me	.
.	.	.	4r	.	4r	.	4b\	.	4b\	te	.
=86	=86	=86	=86	=86	=86	=86	=86	=86	=86	=86	=86
1r	.	.	1r	.	1r	.	4ccn\	.	4ccn\	te	.
.	.	.	.	.	.	.	4cc#X\	.	4cc#X\	.	.
.	.	.	.	.	.	.	4dd\	.	4dd\	te	.
.	.	.	.	.	.	.	4dd#X\	.	4dd#X\	te	.
!LO:LB:g=original	!	!	!	!	!	!	!	!	!	!	!
=87	=87	=87	=87	=87	=87	=87	=87	=87	=87	=87	=87
4r	.	.	2r	.	2r	.	1ee	.	1ee	A-	.
4D/	4 2	.	.	.	.	.	.	.	.	.	.
4C#/	6	.	[y2a\	.	[<2cc#\	.	.	.	.	.	.
4BB/	6	.	.	.	.	.	.	.	.	.	.
=88	=88	=88	=88	=88	=88	=88	=88	=88	=88	=88	=88
!	!	!	!LO:N:xstem:cue	!	!	!	!	!	!	!	!
4AA/	.	.	4a\]	.	4cc#\]	.	4ee\	.	(4ee\	.	.
4D\	.	.	4f#\	.	4b\	.	4ff#\	.	4ff#\)	.	.
4E\	.	.	4.e\	.	4.g#/	.	4.b/	.	4.b\	-ma-	.
4EE/	4	.	.	.	.	.	.	.	.	.	.
.	3	.	8e\	.	8a/	.	8a/	.	8a\	-sti	.
=89	=89	=89	=89	=89	=89	=89	=89	=89	=89	=89	=89
4AA/	.	.	2c#\	.	2.a/	.	2.a/	.	2.a,<\	me	.
4A\	.	.	.	.	.	.	.	.	.	.	.
4A\	.	.	2r	.	.	.	.	.	.	.	.
!	!	!	!	!	!	!	!LO:TX:a:t=bis	!	!	!	!
4r	.	.	.	.	4g#/	.	4ee\	.	4b\	O	.
!	!	!	!LO:LB:g=original	!	!	!	!	!	!	!	!
=90	=90	=90	=90	=90	=90	=90	=90	=90	=90	=90	=90
!	!	!	!	!	!	!	!LO:TX:t=P:problem=t. 90-99 zapisne repetycją	!	!	!	!
00r	.	.	4d#X\	.	4.a/	.	4.ccn\yy	.	4.ccn\	De-	.
.	.	.	4d#\	.	.	.	.	.	.	.	.
.	.	.	.	.	8g#/	.	8b\yy	.	8b\	-(us)	.
!	!	!	!	!	!	!	!	!	!LO:LB:g=original	!	!
.	.	.	4d#\	.	8a/L	.	(y8ccn\Lyy	.	(8ccn\L	E-	.
.	.	.	.	.	8g#/	.	8b\yy	.	8b\J)	.	.
.	.	.	4d#\	.	8a/J	.	8cc\)yy	.	(8cc\L	-go	.
!	!	!	!	!	!LO:N:vis=4	!	!	!	!	!	!
.	.	.	.	.	8g#/	.	8b\Jyy	.	8b\J)	.	.
=91	=91	=91	=91	=91	=91	=91	=91	=91	=91	=91	=91
!	!	!	!	!	!	!	!LO:SIC:v:s=ccn\	!	!	!	!
.	.	.	4d#X\	.	4a/	.	4cc#\yy	.	4cc#\	A-	.
.	.	.	4d#\	.	4g#/	.	4b\yy	.	4b\	-mo	.
.	.	.	2r	.	4r	.	4dd#X\yy	.	4dd#X\	te	.
.	.	.	.	.	4g#/	.	4b\yy	.	4b\	te	.
=92	=92	=92	=92	=92	=92	=92	=92	=92	=92	=92	=92
!	!	!	!	!	!LO:TX:t=P:problem=brak dwóch taktów	!	!	!	!	!	!
.	.	.	4d#X\	.	1ryy	.	4.ccn\yy	.	4.ccn\	De-	.
.	.	.	4d#\	.	.	.	.	.	.	.	.
.	.	.	.	.	.	.	8b\yy	.	8b\	-(us)	.
.	.	.	4d#\	.	.	.	(y8ccn\Lyy	.	(8ccn\L	E-	.
.	.	.	.	.	.	.	8b\yy	.	8b\J)	.	.
.	.	.	4d#\	.	.	.	8cc\yy	.	(8cc\L	-go	.
.	.	.	.	.	.	.	8b\J)yy	.	8b\J)	.	.
=93	=93	=93	=93	=93	=93	=93	=93	=93	=93	=93	=93
!	!	!	!LO:SIC:v:s=d#\	!	!	!	!	!	!	!	!
.	.	.	4d\	.	1ryy	.	4ccn\yy	.	4ccn\	A-	.
!	!	!	!LO:SIC:v:s=d#\	!	!	!	!	!	!	!	!
.	.	.	4d\	.	.	.	4b\yy	.	4b\	-mo	.
!	!	!	!LO:SIC:v:s=d#\	!	!	!	!	!	!	!	!
.	.	.	4d\	.	.	.	4dd#X\yy	.	4ff#,<\	te	.
.	.	.	4r	.	.	.	4b\yy	.	4b\	na(m)	.
=94	=94	=94	=94	=94	=94	=94	=94	=94	=94	=94	=94
0r	.	.	4d#X\	.	8f#/L	.	(y8a/Lyy	.	8a\L	pri-	.
.	.	.	.	.	8e/J	.	8g#/J)yy	.	8g#\J	.	.
.	.	.	4d#\	.	4f#/	.	4a/yy	.	4a\	-or	.
.	.	.	4d#\	.	8f#/L	.	8a/Lyy	.	8a\L	tu	.
.	.	.	.	.	8e/J	.	8g#/Jyy	.	8g#\J	.	.
.	.	.	4d#\	.	4f#/	.	4a/yy	.	4a\	a-	.
!	!	!	!	!	!LO:LB:g=original	!	!	!	!	!	!
=95	=95	=95	=95	=95	=95	=95	=95	=95	=95	=95	=95
.	.	.	4e\	.	4.f#/	.	4.a/yy	.	4.a\	-ma-	.
.	.	.	4e\	.	.	.	.	.	.	.	.
.	.	.	.	.	8e/	.	8g#/yy	.	8g#\	-sti	.
.	.	.	4e\	.	4f#/	.	4g#/yy	.	4g#,<\	me	.
.	.	.	4r	.	4r	.	4b\yy	.	4b\	te	.
=96	=96	=96	=96	=96	=96	=96	=96	=96	=96	=96	=96
1r	.	.	1r	.	1r	.	4ccn\yy	.	4ccn\	te	.
.	.	.	.	.	.	.	4cc#X\yy	.	4cc#X\	mi	.
.	.	.	.	.	.	.	4dd\yy	.	4dd\	De-	.
.	.	.	.	.	.	.	4dd#X\yy	.	4dd#X\	-(us)	.
!	!	!	!	!	!	!	!	!	!LO:LB:g=original	!	!
=97	=97	=97	=97	=97	=97	=97	=97	=97	=97	=97	=97
4r	.	.	2r	.	2r	.	1eeyy	.	[<1ee	A-	.
4D/	4 2	.	.	.	.	.	.	.	.	.	.
4C#/	6	.	[y2a\	.	2b\	.	.	.	.	.	.
4BB/	6\	.	.	.	.	.	.	.	.	.	.
=98	=98	=98	=98	=98	=98	=98	=98	=98	=98	=98	=98
!	!	!	!LO:N:xstem:cue	!	!	!	!	!	!	!	!
4AA/	.	.	4a\]	.	4.b/	.	4ee\yy	.	4ee\]	.	.
4D/	.	.	4f#\	.	.	.	4ff#\yy	.	(4ff#\	.	.
.	.	.	.	.	8g#/	.	.	.	.	.	.
4E\	.	.	4.e\	.	4g#/	.	4.b/yy	.	4.b\)	-ma-	.
4EE/	4	.	.	.	4a/	.	.	.	.	.	.
!	!	!	!LO:TX:a:t=e	!	!	!	!	!	!	!	!
.	3	.	8e\	.	.	.	8a/yy	.	8a\	-sti	.
=99	=99	=99	=99	=99	=99	=99	=99	=99	=99	=99	=99
2.AA/	.	.	2.c#/	.	2.a/	.	2.a/yy	.	2a\	me	.
.	.	.	.	.	.	.	.	.	2r	.	.
4A\	.	.	4a\	.	[<4cc#\	.	4ee\yy	.	.	.	.
!	!	!	!LO:LB:g=original	!	!	!	!LO:LB:g=original	!	!	!	!
=100	=100	=100	=100	=100	=100	=100	=100	=100	=100	=100	=100
!	!	!	!LO:TX:t=P:problem=brak taktu	!	!	!	!	!	!	!	!
2A\	.	.	1ryy	.	4cc#\]	.	4ee\	.	00r	.	.
!	!	!	!	!	!	!	!	!LO:DY:b:t=For&colon;	!	!	!
.	.	.	.	.	8dd\L	.	8ff#\L	f	.	.	.
.	.	.	.	.	8cc#\J	.	8ee\J	.	.	.	.
2AA/	.	.	.	.	(8cc#\L	.	8dd\L	.	.	.	.
.	.	.	.	.	8a\	.	8cc#\	.	.	.	.
.	.	.	.	.	8dd\)	.	8b\	.	.	.	.
.	.	.	.	.	8cc#\J	.	8a\J	.	.	.	.
=101	=101	=101	=101	=101	=101	=101	=101	=101	=101	=101	=101
4D\	.	.	2a\	.	2dd\	.	2ff#\	.	.	.	.
4F#\	.	.	.	.	.	.	.	.	.	.	.
4A\	.	.	4a\	.	4cc#\	.	4ee\	.	.	.	.
!	!	!	!	!	!LO:N:vis=8	!	!	!	!	!	!
4r	.	.	4r	.	4g#/	.	4aa\	.	.	.	.
!LO:LB:g=original	!	!	!	!	!	!	!	!	!	!	!
=102	=102	=102	=102	=102	=102	=102	=102	=102	=102	=102	=102
4d\	.	.	4f#\	.	4dd\	.	(8ff#\L	.	.	.	.
.	.	.	.	.	.	.	8dd\	.	.	.	.
4D\	.	.	4f#\	.	4dd\	.	8cc#\)	.	.	.	.
.	.	.	.	.	.	.	8dd\J|	.	.	.	.
4F#\	.	.	4f#\	.	4dd\	.	(8ff#\L	.	.	.	.
.	.	.	.	.	.	.	8dd\	.	.	.	.
4D\	.	.	4f#\	.	4dd\	.	8cc#\)	.	.	.	.
.	.	.	.	.	.	.	8dd\J|	.	.	.	.
=103	=103	=103	=103	=103	=103	=103	=103	=103	=103	=103	=103
2A\	.	.	2a\	.	2.cc#\	.	8ee\L	.	.	.	.
.	.	.	.	.	.	.	8dd\	.	.	.	.
.	.	.	.	.	.	.	8cc#\	.	.	.	.
.	.	.	.	.	.	.	8b\J	.	.	.	.
2AA/	.	.	2a\	.	.	.	4a/	.	.	.	.
.	.	.	.	.	4cc#\	.	4aa\	.	.	.	.
=104	=104	=104	=104	=104	=104	=104	=104	=104	=104	=104	=104
4d\	.	.	4f#\	.	4dd\	.	(8ff#\L	.	00r;;	.	.
.	.	.	.	.	.	.	8dd\	.	.	.	.
!	!	!	!	!	!	!LO:DY:b:t=p.	!	!	!	!	!
4D/	.	.	4f#\	.	4dd\	p	8cc#\)	.	.	.	.
.	.	.	.	.	.	.	8dd\J|	.	.	.	.
4F#\	.	.	4f#\	.	4dd\	.	(8ff#\L	.	.	.	.
.	.	.	.	.	.	.	8dd\	.	.	.	.
4D\	.	.	4f#\	.	4dd\	.	8cc#\)	.	.	.	.
.	.	.	.	.	.	.	8dd\J|	.	.	.	.
=105	=105	=105	=105	=105	=105	=105	=105	=105	=105	=105	=105
2A\	.	.	2e\	.	2.cc#\	.	8ee\L	.	.	.	.
.	.	.	.	.	.	.	8dd\	.	.	.	.
.	.	.	.	.	.	.	8cc#\	.	.	.	.
.	.	.	.	.	.	.	8b\J	.	.	.	.
2AA/	.	.	2a\	.	.	.	4a/	.	.	.	.
.	.	.	.	.	4cc#\	.	(<4ee\	.	.	.	.
!	!	!	!	!	!LO:LB:g=original	!	!	!	!	!	!
=106	=106	=106	=106	=106	=106	=106	=106	=106	=106	=106	=106
4B\	.	.	4d\	.	(8b/L	.	(8dd\L)	.	.	.	.
.	.	.	.	.	8a/	.	8cc#\	.	.	.	.
4E\	7	.	4e\	.	8b/	.	8dd\)	.	.	.	.
.	.	.	.	.	8g#/J)	.	8b\J|	.	.	.	.
!	!	!	!LO:N:vis=4.	!	!	!	!	!	!	!	!
4A\	.	.	4e\	.	4a/	.	(8cc#\L	.	.	.	.
.	.	.	.	.	.	.	8b\	.	.	.	.
4AA/	.	.	4c#\	.	4a/	.	8cc#\)	.	.	.	.
.	.	.	.	.	.	.	8a\J	.	.	.	.
=107	=107	=107	=107	=107	=107	=107	=107	=107	=107	=107	=107
2E\	.	.	4.e\	.	4.g#/	.	4.b/	.	.	.	.
.	.	.	8e\	.	8g#/	.	8e/	.	.	.	.
2r	.	.	8e\L	.	8g#/L	.	8b/L	.	.	.	.
.	.	.	8e\	.	8g#/	.	8e/	.	.	.	.
.	.	.	8e\	.	8g#/	.	8b/	.	.	.	.
.	.	.	8e\J	.	8g#/J	.	8e/J	.	.	.	.
=108	=108	=108	=108	=108	=108	=108	=108	=108	=108	=108	=108
2E\	6 4	.	4.e\	.	4.a/	.	4.cc#\	.	00r	.	.
.	.	.	8e\	.	8a/	.	8e/	.	.	.	.
!	!	!	!	!	!	!	!LO:TX:t=P:problem=mixed beam	!	!	!	!
2r	.	.	8e\L	.	8a/L	.	8cc#\L	.	.	.	.
.	.	.	8e\	.	8a/	.	8e/	.	.	.	.
.	.	.	8e\	.	8a/	.	8cc#\	.	.	.	.
.	.	.	8e\J	.	8a/J	.	8e/J	.	.	.	.
=109	=109	=109	=109	=109	=109	=109	=109	=109	=109	=109	=109
!	!	!	!LO:SIC:v:s=g#\	!	!	!	!	!	!	!	!
2E\	7	.	4.f#\	.	4.b\	.	4.dd\	.	.	.	.
!	!	!	!LO:SIC:v:s=g#\	!	!	!	!	!	!	!	!
.	.	.	8f#\	.	8b\	.	8e/	.	.	.	.
*	*	*	*	*	*	*	*custos:dd	*	*	*	*
*	*	*	*	*	*	*	*custos:b	*	*	*	*
!	!	!	!	!	!	!	!LO:LB:g=original	!	!	!	!
!	!	!	!LO:SIC:v:s=g#\L	!	!	!	!LO:TX:t=P:problem=mixed beam	!	!	!	!
2r	.	.	8f#\L	.	8b\L	.	8dd\L	.	.	.	.
!	!	!	!LO:SIC:v:s=g#\	!	!	!	!	!	!	!	!
.	.	.	8f#\	.	8b\	.	8e/	.	.	.	.
!	!	!	!LO:SIC:v:s=g#\	!	!	!	!	!	!	!	!
.	.	.	8f#\	.	8b\	.	8dd\	.	.	.	.
!	!	!	!LO:SIC:v:s=g#\J	!	!	!	!	!	!	!	!
.	.	.	8f#\J	.	8b\J	.	8e/J	.	.	.	.
!	!	!	!LO:LB:g=original	!	!	!	!	!	!	!	!
=110	=110	=110	=110	=110	=110	=110	=110	=110	=110	=110	=110
2.A\	.	.	2.a\	.	4.cc#\	.	4.ee\	.	.	.	.
.	.	.	.	.	8b\	.	8dd\	.	.	.	.
.	.	.	.	.	4a/	.	4cc#\	.	.	.	.
4D\	.	.	4f#\	.	4b/	.	4aa\	.	.	.	.
=111	=111	=111	=111	=111	=111	=111	=111	=111	=111	=111	=111
2E\	4	.	2e\	.	2a/	.	2cc#\	.	.	.	.
2EE/	3	.	2e\	.	2g#/	.	2b\	.	.	.	.
!LO:LB:g=original	!	!	!	!	!	!	!	!	!	!	!
=112	=112	=112	=112	=112	=112	=112	=112	=112	=112	=112	=112
!LO:TX:a:t=Finis	!	!	!	!	!	!	!LO:TX:a:t=Finis	!	!LO:TX:a:t=Finis	!	!
2AA;;/	.	.	2.c#;;\	.	2.a;;/	.	2.a;;/	.	2r	.	.
!	!	!	!LO:TX:a:t=Finis	!	!LO:TX:a:t=Finis	!	!	!	!	!	!
2r	.	.	.	.	.	.	.	.	4r	.	.
*>B	*>B	*>B	*>B	*>B	*>B	*>B	*>B	*>B	*>B	*>B	*>B
!LO:TX:t=P:problem=podwójna kreska taktowa	!	!	!	!	!LO:N:vis=8	!	!LO:TX:t=P:problem=podwójna kreska taktowa	!	!	!	!
.	.	.	4f#\	.	4a/	.	4cc#\	.	4cc#\	En	.
=113	=113	=113	=113	=113	=113	=113	=113	=113	=113	=113	=113
!	!	!	!LO:TX:a:t=Solo	!	!	!	!	!	!	!	!
00r	.	.	4f#\	.	4a/	.	4cc#\	.	4cc#\	li-	.
.	.	.	4f#\	.	2f#/	.	4a/	.	4a\	-be-	.
.	.	.	4f#\	.	.	.	4f#/	.	4f#/	-ra-	.
.	.	.	4c#\	.	4e#X/	.	4g#/	.	4g#/	-te	.
=114	=114	=114	=114	=114	=114	=114	=114	=114	=114	=114	=114
.	.	.	2e\	.	2.f#/	.	8a/L	.	(8a\L	pri-	.
.	.	.	.	.	.	.	8b/	.	8b\J)	.	.
.	.	.	.	.	.	.	8cc#/	.	(8cc#\L	-vo	.
.	.	.	.	.	.	.	8b/J	.	8b\J)	.	.
.	.	.	4r	.	.	.	4a/	.	4a\	me	.
.	.	.	4c#/	.	4e#X/	.	4g#/	.	4g#\	ut	.
=115	=115	=115	=115	=115	=115	=115	=115	=115	=115	=115	=115
!	!	!	!	!	!	!	!LO:TX:t=P:problem=takt zapisany repetycją	!	!	!	!
.	.	.	4f#\	.	4f#/	.	8a/Lyy	.	(8a\L	Spon-	.
.	.	.	.	.	.	.	8b/yy	.	8b\J)	.	.
.	.	.	4f#\	.	4a/	.	8cc#/yy	.	(8cc#\L	-te	.
.	.	.	.	.	.	.	8b/Jyy	.	8b\J)	.	.
.	.	.	4f#\	.	4f#/	.	4a/yy	.	4a\	vin-	.
.	.	.	4c#\	.	4g#/	.	4g#/yy	.	4g#\	-ct(us)	.
!	!	!	!	!	!LO:LB:g=original	!	!	!	!	!	!
=116	=116	=116	=116	=116	=116	=116	=116	=116	=116	=116	=116
.	.	.	2.f#\	.	2.a/	.	4a/	.	4a\	S(e)-	.
.	.	.	.	.	.	.	8g#/L	.	8g#\L	-quar	.
.	.	.	.	.	.	.	8a/J	.	8a\J	.	.
.	.	.	.	.	.	.	4f#/	.	4f#/	te	.
*	*	*	*	*	*	*	*	*	*custos:cc	*	*
*	*	*	*	*	*	*	*	*	*custos:g	*	*
!	!	!	!	!	!	!	!	!	!LO:LB:g=original	!	!
.	.	.	4a#X\	.	4cc#\	.	4ff#\	.	4ff#\	e	.
=117	=117	=117	=117	=117	=117	=117	=117	=117	=117	=117	=117
1r	.	.	4b\	.	4dd\	.	4ff#\	.	4ff#\	li-	.
.	.	.	4b\	.	4dd\	.	4dd\	.	4dd\	-be-	.
.	.	.	4b\	.	4dd\	.	4b\	.	4b\	-ra-	.
.	.	.	4f#\	.	4dd\	.	4cc#\	.	4cc#\	-te	.
=118	=118	=118	=118	=118	=118	=118	=118	=118	=118	=118	=118
2r	.	.	2.c#/	.	8b\L	.	8dd\L	.	(8dd\L	pri-	.
.	.	.	.	.	8cc#\	.	8ee\	.	8ee\J)	.	.
.	.	.	.	.	8dd\	.	8ff#\	.	(8ff#\L	-vo	.
.	.	.	.	.	8cc#\J	.	8ee\J	.	8ee\J)	.	.
4r	.	.	.	.	4b\	.	4dd\	.	4dd,<\	me	.
!	!	!	!LO:TX:t=P:problem=podwójna kreska taktowa	!	!	!	!	!	!	!	!
4F#\	.	.	4r	.	4r	.	4r	.	4cc#\	ut	.
=119	=119	=119	=119	=119	=119	=119	=119	=119	=119	=119	=119
4BB/	.	.	00r	.	00r	.	00r	.	(8dd\L	Spon-	.
.	.	.	.	.	.	.	.	.	8ee\J)	.	.
4BB/	.	.	.	.	.	.	.	.	(8ff#\L	-te	.
.	.	.	.	.	.	.	.	.	8ee\J)	.	.
4BB/	.	.	.	.	.	.	.	.	4dd\	vin-	.
4F#\	#	.	.	.	.	.	.	.	(8cc#\L	-ct(us)	.
.	.	.	.	.	.	.	.	.	8dd\J)	.	.
=120	=120	=120	=120	=120	=120	=120	=120	=120	=120	=120	=120
4r	.	.	.	.	.	.	.	.	[<1ee	vin-	.
4c#\	3	.	.	.	.	.	.	.	.	.	.
4B#X\	.	.	.	.	.	.	.	.	.	.	.
4F#\	7	.	.	.	.	.	.	.	.	.	.
=121	=121	=121	=121	=121	=121	=121	=121	=121	=121	=121	=121
4B\	.	.	.	.	.	.	.	.	4ee\]	.	.
4E\	7	.	.	.	.	.	.	.	4dd,<\	-ct(us)	.
4F#\	# 4	.	.	.	.	.	.	.	4.cc#\	Se-	.
4FF#/	x 3	.	.	.	.	.	.	.	.	.	.
.	.	.	.	.	.	.	.	.	8b\	-quar	.
=122	=122	=122	=122	=122	=122	=122	=122	=122	=122	=122	=122
2.BB/	.	.	.	.	.	.	.	.	4b,<\	te	.
.	.	.	.	.	.	.	.	.	(8cc#\L	ut	.
.	.	.	.	.	.	.	.	.	8dd\J)	.	.
.	.	.	.	.	.	.	.	.	(8cc#\L	Spon-	.
.	.	.	.	.	.	.	.	.	8b\J)	.	.
4C#/	#	.	.	.	.	.	.	.	(8a\L	-te	.
.	.	.	.	.	.	.	.	.	8b\J)	.	.
!	!	!	!	!	!	!	!	!	!LO:LB:g=original	!	!
=123	=123	=123	=123	=123	=123	=123	=123	=123	=123	=123	=123
2.F#\	-	.	0r	.	0r	.	0r	.	4.cc#\	vin-	.
.	.	.	.	.	.	.	.	.	8dd\	-ct(us)	.
.	.	.	.	.	.	.	.	.	(8cc#\L	Spon-	.
.	.	.	.	.	.	.	.	.	8b\J)	.	.
4C#/	#	.	.	.	.	.	.	.	(8a\L	-te	.
.	.	.	.	.	.	.	.	.	8b\J)	.	.
=124	=124	=124	=124	=124	=124	=124	=124	=124	=124	=124	=124
4F#\	-	.	.	.	.	.	.	.	2.cc#\	vin-	.
4E\	.	.	.	.	.	.	.	.	.	.	.
4D\	.	.	.	.	.	.	.	.	.	.	.
4BB/	.	.	.	.	.	.	.	.	4ff#\	-ct(us)	.
!LO:LB:g=original	!	!	!	!	!	!	!	!	!	!	!
=125	=125	=125	=125	=125	=125	=125	=125	=125	=125	=125	=125
1C#	.	.	1r	.	1r	.	1r	.	2.g#/	Se-	.
.	.	.	.	.	.	.	.	.	4f#/	-quar-	.
=126	=126	=126	=126	=126	=126	=126	=126	=126	=126	=126	=126
!	!	!	!	!	!	!	!	!	!LO:TX:b:t=F	!	!
2.F#\	.	.	2r	.	2r	.	2r	.	2.f#/	-te	.
.	.	.	4r	.	4r	.	4r	.	.	.	.
!LO:TX:b:t=Aria Da Capo us(que) ad Signu(m) finis	!	!	!LO:TX:b:t=Da Capo Aria	!	!LO:TX:b:t=Aria Da Capo	!	!LO:TX:b:t=aria Da \nCapo	!	!LO:TX:b:t=Aria Da Capo usqe\nad Signu(m) Finis	!	!
4ryy	.	.	4a\	.	4cc#\	.	4ee\	.	4ryy	.	.
==	==	==	==	==	==	==	==	==	==	==	==
*-	*-	*-	*-	*-	*-	*-	*-	*-	*-	*-	*-
!!!system-decoration: s1[(s2,s3,s4)]s5
!!!RDF**kern: < = below
!!!RDF**kern: | = vertical stroke
!!!ENC: Marcin Jachim
!!!END: 2020-11-24
!!!ENC: Marta Lawrence
!!!END: 2022-03-06
